svgs/light/wind.svg

<svg xmlns="http://www.w3.org/2000/svg" viewBox="0 0 512 512"><!-- Font Awesome Pro 6.0.0-alpha2 by @fontawesome - https://fontawesome.com License - https://fontawesome.com/license (Commercial License) --><path d="M16 192H368C412.125 192 448 156.125 448 112S412.125 32 368 32H336C327.156 32 320 39.156 320 48S327.156 64 336 64H368C394.469 64 416 85.531 416 112S394.469 160 368 160H16C7.156 160 0 167.156 0 176S7.156 192 16 192ZM176 320H16C7.156 320 0 327.156 0 336S7.156 352 16 352H176C202.469 352 224 373.531 224 400S202.469 448 176 448H144C135.156 448 128 455.156 128 464S135.156 480 144 480H176C220.125 480 256 444.125 256 400S220.125 320 176 320ZM424 240H16C7.156 240 0 247.156 0 256S7.156 272 16 272H424C454.875 272 480 297.125 480 328S454.875 384 424 384H400C391.156 384 384 391.156 384 400S391.156 416 400 416H424C472.531 416 512 376.531 512 328S472.531 240 424 240Z"/></svg>

<svg xmlns="http://www.w3.org/2000/svg" viewBox="0 0 512 512"><!--! Font Awesome Pro 6.0.0-alpha3 by @fontawesome - https://fontawesome.com License - https://fontawesome.com/license (Commercial License) --><path d="M16 192h352C412.1 192 448 156.1 448 112S412.1 32 368 32h-32C327.2 32 320 39.16 320 48S327.2 64 336 64h32C394.5 64 416 85.53 416 112S394.5 160 368 160h-352C7.156 160 0 167.2 0 176S7.156 192 16 192zM176 320h-160C7.156 320 0 327.2 0 336S7.156 352 16 352h160C202.5 352 224 373.5 224 400S202.5 448 176 448h-32C135.2 448 128 455.2 128 464S135.2 480 144 480h32c44.13 0 80-35.88 80-80S220.1 320 176 320zM424 240H16C7.156 240 0 247.2 0 256s7.156 16 16 16h408c30.88 0 56 25.12 56 56S454.9 384 424 384H400c-8.844 0-16 7.156-16 16s7.156 16 16 16h24c48.53 0 88-39.47 88-88S472.5 240 424 240z"/></svg>
